svgs/sharp-light/memory.svg

<svg xmlns="http://www.w3.org/2000/svg" viewBox="0 0 576 512"><!--! Font Awesome Pro 6.6.0 by @fontawesome - https://fontawesome.com License - https://fontawesome.com/license (Commercial License) Copyright 2024 Fonticons, Inc. --><path d="M0 96L0 64l32 0 512 0 32 0 0 32 0 50.7c-18.6 6.6-32 24.4-32 45.3s13.4 38.7 32 45.3l0 66.7 0 112 0 32-32 0L32 448 0 448l0-32L0 304l0-66.7c18.6-6.6 32-24.4 32-45.3s-13.4-38.7-32-45.3L0 96zM544 256c-19.4-14.6-32-37.8-32-64s12.6-49.4 32-64l0-32L32 96l0 32c19.4 14.6 32 37.8 32 64s-12.6 49.4-32 64l0 32 512 0 0-32zm0 64L32 320l0 96 64 0 0-16 0-16 32 0 0 16 0 16 56 0 0-16 0-16 32 0 0 16 0 16 56 0 0-16 0-16 32 0 0 16 0 16 56 0 0-16 0-16 32 0 0 16 0 16 56 0 0-16 0-16 32 0 0 16 0 16 64 0 0-96zM176 144l0 96 0 16-32 0 0-16 0-96 0-16 32 0 0 16zm128 0l0 96 0 16-32 0 0-16 0-96 0-16 32 0 0 16zm128 0l0 96 0 16-32 0 0-16 0-96 0-16 32 0 0 16z"/></svg>

<svg xmlns="http://www.w3.org/2000/svg" viewBox="0 0 576 512"><!--! Font Awesome Pro 6.4.0 by @fontawesome - https://fontawesome.com License - https://fontawesome.com/license (Commercial License) Copyright 2023 Fonticons, Inc. --><path d="M0 96V64H32 544h32V96v50.7c-18.6 6.6-32 24.4-32 45.3s13.4 38.7 32 45.3V304 416v32H544 32 0V416 304 237.3c18.6-6.6 32-24.4 32-45.3s-13.4-38.7-32-45.3V96zM544 256c-19.4-14.6-32-37.8-32-64s12.6-49.4 32-64V96H32v32c19.4 14.6 32 37.8 32 64s-12.6 49.4-32 64v32H544V256zm0 64H32v96H96V400 384h32v16 16h56V400 384h32v16 16h56V400 384h32v16 16h56V400 384h32v16 16h56V400 384h32v16 16h64V320zM176 144v96 16H144V240 144 128h32v16zm128 0v96 16H272V240 144 128h32v16zm128 0v96 16H400V240 144 128h32v16z"/></svg>
